svgs/sharp-regular/car-rear.svg

<svg xmlns="http://www.w3.org/2000/svg" viewBox="0 0 512 512"><!--! Font Awesome Pro 6.6.0 by @fontawesome - https://fontawesome.com License - https://fontawesome.com/license (Commercial License) Copyright 2024 Fonticons, Inc. --><path d="M102.7 32L120 32l272 0 17.3 0 5.5 16.4L457.3 176l6.7 0 48 0 0 48 0 128 0 48-32 0 0 80-48 0 0-80L80 400l0 80-48 0 0-80L0 400l0-48L0 224l0-48 48 0 6.7 0L97.2 48.4 102.7 32zm272 48L137.3 80l-32 96 301.4 0-32-96zM48 224l0 32 80 0 0 48-80 0 0 48 144 0 0-64 128 0 0 64 144 0 0-48-80 0 0-48 80 0 0-32L48 224z"/></svg>

<svg xmlns="http://www.w3.org/2000/svg" viewBox="0 0 512 512"><!--! Font Awesome Pro 6.4.0 by @fontawesome - https://fontawesome.com License - https://fontawesome.com/license (Commercial License) Copyright 2023 Fonticons, Inc. --><path d="M102.7 32H120 392h17.3l5.5 16.4L457.3 176H464h48v48V352v48H480v80H432V400H80v80H32V400H0V352 224 176H48h6.7L97.2 48.4 102.7 32zm272 48H137.3l-32 96H406.7l-32-96zM48 224v32h80v48H48v48H192V288H320v64H464V304H384V256h80V224H48z"/></svg>
